pencolour red
forward 100
right 90
pencolour yellow
forward 100
right 90
pencolour blue
forward 100
right 90
pencolour green
forward 100
left 45
pencolour brown
forward 100
right 90
pencolour pink
forward 100
right 90
pencolour purple
forward 100
right 90
pencolour orange
forward 100
right 90
pencolour grey
forward 100
left 45
pencolour black
forward 100
right 180
pencolour white
forward 100